X: 1538
T: Ol Güzel Cây-ı...
C: Ahmet Avni Konuk
O: Turkey
F: http://compmusic.upf.edu/node/140
N: ferahnak--kupe--agirevfer--ol--ahmet_avni_konuk
N: makam= ferahnak
N: form= kupe
N: usul= agirevfer = 9/4
M: 9/4
L: 1/16
K: C ^f ^c  
Q: 1/4=72
%%MIDI tuningsystem comma53
z4 d8 ^e4 f3e d2e2 f2e2 f4 z4  | z4 f2b2 a4 g2f2 edef e2d2 c3B A4 z4  | 
w:  Ol  gü zel  *  *  *  cây_  |  ı  *  *  Fe *  rah *  *  *  *  *  nâk   | 
z4 B2c2 B4 c4 d8 e4 f4 d4  | z2b2 a2g2 f6e2 edef e2d2 c3B A4 z4  | 
w:  is *  *  te miş  üf  |  tâ *  *  *  de den    | 
z4 A8 e4 e2d2 d2c2 c3B B3A A3G  | \
w:  O  da  bah *  *  *  set  | 
z4 A2B2 c4 B2A2 AGAB A2G2 F3E D4 z4  | 
w:  miş  *  *  o  *  şû *  *  *  *  *  ha   | 
z4 F2G2 F4 G4 A4 A2e2 e2d2 c2B2 A4  | \
w:  mec *  *  lis_ i  *  *  â  | 
z2G4F2 F2E2 E2D2 GFGA G2F2 F8 z4  | 
w:  mâ *  *  *  *  de den    | 
|


